docs/.gitbook/assets/icon-devices-16@dark.svg

<svg width="32" height="32" viewBox="0 0 16 16" fill="none" xmlns="http://www.w3.org/2000/svg">
<rect x="0" y="0" width="16" height="16" fill="#181c1f"/>
<path fill-rule="evenodd" clip-rule="evenodd" d="M4 2C2.89543 2 2 2.89543 2 4V10.5H1.75C1.33579 10.5 1 10.8358 1 11.25C1 11.6642 1.33579 12 1.75 12H2H2.75H6H6.25C6.66421 12 7 11.6642 7 11.25C7 10.8358 6.66421 10.5 6.25 10.5H6H3.5V4C3.5 3.72386 3.72386 3.5 4 3.5H12C12.1631 3.5 12.3079 3.57728 12.4004 3.70038C12.6492 4.03155 13.1193 4.09831 13.4505 3.8495C13.7817 3.60069 13.8484 3.13053 13.5996 2.79937C13.236 2.3154 12.6547 2 12 2H4ZM10 5C8.89543 5 8 5.89543 8 7V12C8 13.1046 8.89543 14 10 14H13C14.1046 14 15 13.1046 15 12V7C15 5.89543 14.1046 5 13 5H10ZM9.5 7C9.5 6.72386 9.72386 6.5 10 6.5H13C13.2761 6.5 13.5 6.72386 13.5 7V12C13.5 12.2761 13.2761 12.5 13 12.5H10C9.72386 12.5 9.5 12.2761 9.5 12V7ZM11.25 7C10.8358 7 10.5 7.33579 10.5 7.75C10.5 8.16421 10.8358 8.5 11.25 8.5H11.75C12.1642 8.5 12.5 8.16421 12.5 7.75C12.5 7.33579 12.1642 7 11.75 7H11.25Z" fill="#fff"/>
</svg>

<svg xmlns="http://www.w3.org/2000/svg" width="32" height="32" fill="none" viewBox="0 0 16 16"><path fill="#181c1f" d="M0 0h16v16H0z"/><path fill="#fff" fill-rule="evenodd" d="M4 2a2 2 0 0 0-2 2v6.5h-.25a.75.75 0 0 0 0 1.5h4.5a.75.75 0 0 0 0-1.5H3.5V4a.5.5 0 0 1 .5-.5h8c.163 0 .308.077.4.2a.75.75 0 1 0 1.2-.9A2 2 0 0 0 12 2zm6 3a2 2 0 0 0-2 2v5a2 2 0 0 0 2 2h3a2 2 0 0 0 2-2V7a2 2 0 0 0-2-2zm-.5 2a.5.5 0 0 1 .5-.5h3a.5.5 0 0 1 .5.5v5a.5.5 0 0 1-.5.5h-3a.5.5 0 0 1-.5-.5zm1.75 0a.75.75 0 0 0 0 1.5h.5a.75.75 0 0 0 0-1.5z" clip-rule="evenodd"/></svg>
